documentation/public/assets/images/checkbox-dos-and-donts-09.svg

<svg width="142" height="36" viewBox="0 0 142 36" fill="none" xmlns="http://www.w3.org/2000/svg">
<rect x="1.08789" y="2.5" width="15" height="15" rx="2.5" fill="white" stroke="#545454"/>
<path d="M24.5879 4.25586H27.418C28.6667 4.25586 29.6055 4.44271 30.2344 4.81641C30.8633 5.1901 31.1777 5.82585 31.1777 6.72363C31.1777 7.111 31.1025 7.45964 30.9521 7.76953C30.8063 8.07487 30.5921 8.3278 30.3096 8.52832C30.027 8.72884 29.6784 8.86784 29.2637 8.94531V9.01367C29.7012 9.08203 30.0885 9.20736 30.4258 9.38965C30.763 9.57194 31.0273 9.82715 31.2188 10.1553C31.4102 10.4834 31.5059 10.9004 31.5059 11.4062C31.5059 12.0215 31.3623 12.541 31.0752 12.9648C30.7926 13.3887 30.3916 13.71 29.8721 13.9287C29.3525 14.1429 28.7373 14.25 28.0264 14.25H24.5879V4.25586ZM25.75 8.54199H27.6641C28.5345 8.54199 29.1361 8.39844 29.4688 8.11133C29.806 7.82422 29.9746 7.40495 29.9746 6.85352C29.9746 6.28385 29.7741 5.8737 29.373 5.62305C28.9766 5.3724 28.3431 5.24707 27.4727 5.24707H25.75V8.54199ZM25.75 9.51953V13.2588H27.8281C28.7168 13.2588 29.3457 13.0856 29.7148 12.7393C30.084 12.3883 30.2686 11.9167 30.2686 11.3242C30.2686 10.946 30.1842 10.6224 30.0156 10.3535C29.8516 10.0846 29.5827 9.87956 29.209 9.73828C28.8398 9.59245 28.3454 9.51953 27.7256 9.51953H25.75Z" fill="black"/>
<path d="M34.6094 14.25H33.4678V3.61328H34.6094V14.25Z" fill="black"/>
<path d="M43.1953 6.75781V14.25H42.2656L42.1016 13.1973H42.04C41.8851 13.457 41.6846 13.6758 41.4385 13.8535C41.1924 14.0312 40.9144 14.1634 40.6045 14.25C40.2992 14.3411 39.9733 14.3867 39.627 14.3867C39.0345 14.3867 38.5378 14.291 38.1367 14.0996C37.7357 13.9082 37.4326 13.612 37.2275 13.2109C37.027 12.8099 36.9268 12.2949 36.9268 11.666V6.75781H38.0752V11.584C38.0752 12.2083 38.2165 12.6755 38.499 12.9854C38.7816 13.2907 39.2122 13.4434 39.791 13.4434C40.347 13.4434 40.7891 13.3385 41.1172 13.1289C41.4499 12.9193 41.6891 12.6117 41.835 12.2061C41.9808 11.7959 42.0537 11.2946 42.0537 10.7021V6.75781H43.1953Z" fill="black"/>
<path d="M48.4795 6.62109C49.1175 6.62109 49.6644 6.76237 50.1201 7.04492C50.5758 7.32747 50.9245 7.72396 51.166 8.23438C51.4076 8.74023 51.5283 9.33268 51.5283 10.0117V10.7158H46.3535C46.3672 11.5954 46.5859 12.2653 47.0098 12.7256C47.4336 13.1859 48.0306 13.416 48.8008 13.416C49.2747 13.416 49.694 13.3727 50.0586 13.2861C50.4232 13.1995 50.8014 13.0719 51.1934 12.9033V13.9014C50.8151 14.07 50.4391 14.193 50.0654 14.2705C49.6963 14.348 49.2588 14.3867 48.7529 14.3867C48.0329 14.3867 47.404 14.2409 46.8662 13.9492C46.333 13.653 45.9183 13.2201 45.6221 12.6504C45.3258 12.0807 45.1777 11.3835 45.1777 10.5586C45.1777 9.75195 45.3122 9.05469 45.5811 8.4668C45.8545 7.87435 46.2373 7.41862 46.7295 7.09961C47.2262 6.7806 47.8096 6.62109 48.4795 6.62109ZM48.4658 7.55078C47.8597 7.55078 47.3766 7.74902 47.0166 8.14551C46.6566 8.54199 46.4424 9.0957 46.374 9.80664H50.3389C50.3343 9.36003 50.2637 8.9681 50.127 8.63086C49.9948 8.28906 49.792 8.02474 49.5186 7.83789C49.2451 7.64648 48.8942 7.55078 48.4658 7.55078Z" fill="black"/>
<g clip-path="url(#clip0_11653_104236)">
<path d="M22.9125 24.2255V23.9897C22.9125 22.5845 21.819 21.4414 20.475 21.4414C20.1715 21.4414 19.881 21.5002 19.6126 21.6066C19.3846 20.4472 18.4007 19.5727 17.2251 19.5727C16.9058 19.5727 16.6011 19.6378 16.3215 19.755C16.0265 18.685 15.0468 17.8738 13.9209 17.8738C13.6178 17.8738 13.3256 17.9351 13.0543 18.0455V14.9858C13.0543 13.5806 11.9608 12.4375 10.6168 12.4375C9.27284 12.4375 8.17934 13.5806 8.17934 14.9858V22.49C7.75273 21.9205 7.23977 21.4241 6.64438 21.1682C5.97998 20.8828 5.2808 20.9169 4.62214 21.267C3.41077 21.9109 2.91136 23.4629 3.50881 24.7267L6.5367 31.1328C6.62228 31.3086 8.6742 35.4375 12.3891 35.4375H16.7224C20.1392 35.4375 22.9189 32.5162 22.9189 28.9246L22.9156 24.2255H22.9125V24.2255ZM16.7225 33.7387H12.3892C9.71321 33.7387 8.04609 30.4839 7.98596 30.3641L4.96566 23.9741C4.75723 23.5332 4.92991 23.0093 5.3588 22.7813C5.59518 22.6556 5.8009 22.6428 6.02591 22.7392C6.92301 23.1237 7.80364 24.9767 8.1477 26.0536L8.40879 26.8758L9.80443 26.3594V14.9858C9.80443 14.5173 10.1689 14.1363 10.6169 14.1363C11.065 14.1363 11.4294 14.5173 11.4294 14.9858V24.7824H11.4441H13.0544H13.0691V20.4787C13.0691 20.0045 13.4752 19.5727 13.9211 19.5727C14.3828 19.5727 14.7877 19.9696 14.7877 20.4221V22.1209V25.0656H16.4127V22.1209C16.4127 21.6525 16.7771 21.2715 17.2252 21.2715C17.6732 21.2715 18.0377 21.6525 18.0377 22.1209V23.9897V25.8584H19.6627V23.9897C19.6627 23.5212 20.0271 23.1402 20.4752 23.1402C20.9232 23.1402 21.2876 23.5212 21.2876 23.9897V25.2046H21.2914L21.2941 28.9253C21.294 31.5794 19.2432 33.7387 16.7225 33.7387Z" fill="black"/>
</g>
<rect x="76.0283" y="2.5" width="15" height="15" rx="2.5" fill="white" stroke="#545454"/>
<path d="M103.445 9.2666L106.104 4.25586H107.355L104.026 10.374V14.25H102.864V10.4287L99.5283 4.25586H100.8L103.445 9.2666Z" fill="black"/>
<path d="M111.443 6.62109C112.081 6.62109 112.628 6.76237 113.084 7.04492C113.54 7.32747 113.888 7.72396 114.13 8.23438C114.371 8.74023 114.492 9.33268 114.492 10.0117V10.7158H109.317C109.331 11.5954 109.55 12.2653 109.974 12.7256C110.397 13.1859 110.994 13.416 111.765 13.416C112.239 13.416 112.658 13.3727 113.022 13.2861C113.387 13.1995 113.765 13.0719 114.157 12.9033V13.9014C113.779 14.07 113.403 14.193 113.029 14.2705C112.66 14.348 112.223 14.3867 111.717 14.3867C110.997 14.3867 110.368 14.2409 109.83 13.9492C109.297 13.653 108.882 13.2201 108.586 12.6504C108.29 12.0807 108.142 11.3835 108.142 10.5586C108.142 9.75195 108.276 9.05469 108.545 8.4668C108.818 7.87435 109.201 7.41862 109.693 7.09961C110.19 6.7806 110.773 6.62109 111.443 6.62109ZM111.43 7.55078C110.824 7.55078 110.34 7.74902 109.98 8.14551C109.62 8.54199 109.406 9.0957 109.338 9.80664H113.303C113.298 9.36003 113.228 8.9681 113.091 8.63086C112.959 8.28906 112.756 8.02474 112.482 7.83789C112.209 7.64648 111.858 7.55078 111.43 7.55078Z" fill="black"/>
<path d="M117.562 14.25H116.42V3.61328H117.562V14.25Z" fill="black"/>
<path d="M121.103 14.25H119.961V3.61328H121.103V14.25Z" fill="black"/>
<path d="M129.962 10.4902C129.962 11.1055 129.882 11.6546 129.723 12.1377C129.563 12.6208 129.333 13.0286 129.032 13.3613C128.731 13.694 128.367 13.9492 127.938 14.127C127.515 14.3001 127.034 14.3867 126.496 14.3867C125.995 14.3867 125.535 14.3001 125.115 14.127C124.701 13.9492 124.34 13.694 124.035 13.3613C123.734 13.0286 123.5 12.6208 123.331 12.1377C123.167 11.6546 123.085 11.1055 123.085 10.4902C123.085 9.66992 123.224 8.97266 123.502 8.39844C123.78 7.81966 124.176 7.37988 124.691 7.0791C125.211 6.77376 125.828 6.62109 126.544 6.62109C127.228 6.62109 127.825 6.77376 128.335 7.0791C128.85 7.38444 129.249 7.8265 129.531 8.40527C129.818 8.97949 129.962 9.67448 129.962 10.4902ZM124.261 10.4902C124.261 11.0918 124.34 11.6136 124.5 12.0557C124.66 12.4977 124.906 12.8395 125.238 13.0811C125.571 13.3226 125.999 13.4434 126.523 13.4434C127.043 13.4434 127.469 13.3226 127.802 13.0811C128.139 12.8395 128.387 12.4977 128.547 12.0557C128.706 11.6136 128.786 11.0918 128.786 10.4902C128.786 9.89323 128.706 9.37826 128.547 8.94531C128.387 8.50781 128.141 8.17057 127.809 7.93359C127.476 7.69661 127.045 7.57812 126.517 7.57812C125.737 7.57812 125.165 7.83561 124.801 8.35059C124.441 8.86556 124.261 9.57878 124.261 10.4902Z" fill="black"/>
<path d="M138.021 14.2363L136.688 9.875C136.629 9.68815 136.572 9.50586 136.518 9.32812C136.467 9.14583 136.42 8.97266 136.374 8.80859C136.333 8.63997 136.294 8.48503 136.258 8.34375C136.226 8.19792 136.199 8.07259 136.176 7.96777H136.128C136.11 8.07259 136.085 8.19792 136.053 8.34375C136.021 8.48503 135.982 8.63997 135.937 8.80859C135.896 8.97721 135.85 9.15495 135.8 9.3418C135.75 9.52409 135.693 9.70866 135.629 9.89551L134.234 14.2363H132.956L130.892 6.74414H132.067L133.147 10.8799C133.22 11.1533 133.289 11.4245 133.353 11.6934C133.421 11.9577 133.478 12.2083 133.523 12.4453C133.574 12.6777 133.61 12.8805 133.633 13.0537H133.688C133.715 12.9398 133.744 12.8031 133.776 12.6436C133.813 12.484 133.852 12.3154 133.893 12.1377C133.938 11.9554 133.986 11.7754 134.036 11.5977C134.086 11.4154 134.136 11.2445 134.187 11.085L135.567 6.74414H136.791L138.124 11.0781C138.192 11.2969 138.258 11.5247 138.322 11.7617C138.391 11.9987 138.452 12.2288 138.507 12.4521C138.562 12.6709 138.6 12.8669 138.623 13.04H138.678C138.696 12.8851 138.73 12.6937 138.78 12.4658C138.83 12.238 138.887 11.9873 138.951 11.7139C139.02 11.4404 139.09 11.1624 139.163 10.8799L140.257 6.74414H141.412L139.341 14.2363H138.021Z" fill="black"/>
<path d="M129.353 24.788V24.5522C129.353 23.147 128.259 22.0039 126.915 22.0039C126.612 22.0039 126.321 22.0627 126.053 22.1691C125.825 21.0097 124.841 20.1352 123.666 20.1352C123.346 20.1352 123.042 20.2003 122.762 20.3175C122.467 19.2475 121.487 18.4363 120.361 18.4363C120.058 18.4363 119.766 18.4976 119.495 18.608V15.5483C119.495 14.1431 118.401 13 117.057 13C115.713 13 114.62 14.1431 114.62 15.5483V23.0525C114.193 22.483 113.68 21.9866 113.085 21.7307C112.42 21.4453 111.721 21.4794 111.063 21.8295C109.851 22.4734 109.352 24.0254 109.949 25.2892L112.977 31.6953C113.063 31.8711 115.115 36 118.83 36H123.163C126.58 36 129.359 33.0787 129.359 29.4871L129.356 24.788H129.353V24.788ZM123.163 34.3012H118.83C116.154 34.3012 114.487 31.0464 114.426 30.9266L111.406 24.5366C111.198 24.0957 111.37 23.5718 111.799 23.3438C112.036 23.2181 112.241 23.2053 112.466 23.3017C113.363 23.6862 114.244 25.5392 114.588 26.6161L114.849 27.4383L116.245 26.9219V15.5483C116.245 15.0798 116.609 14.6988 117.057 14.6988C117.505 14.6988 117.87 15.0798 117.87 15.5483V25.3449H117.885H119.495H119.51V21.0412C119.51 20.567 119.916 20.1352 120.361 20.1352C120.823 20.1352 121.228 20.5321 121.228 20.9846V22.6834V25.6281H122.853V22.6834C122.853 22.215 123.218 21.834 123.666 21.834C124.114 21.834 124.478 22.215 124.478 22.6834V24.5522V26.4209H126.103V24.5522C126.103 24.0837 126.468 23.7027 126.916 23.7027C127.364 23.7027 127.728 24.0837 127.728 24.5522V25.7671H127.732L127.735 29.4878C127.734 32.1419 125.684 34.3012 123.163 34.3012Z" fill="black"/>
<defs>
<clipPath id="clip0_11653_104236">
<rect width="22" height="23" fill="white" transform="translate(2.08789 12.4375)"/>
</clipPath>
</defs>
</svg>

<svg width="142" height="36" fill="none" xmlns="http://www.w3.org/2000/svg"><rect x="1.09" y="2.5" width="15" height="15" rx="2.5" fill="#fff" stroke="#545454"/><path d="M24.59 4.26h2.83a5.5 5.5 0 0 1 2.81.56c.63.37.95 1 .95 1.9 0 .4-.08.74-.23 1.05-.14.3-.36.56-.64.76-.28.2-.63.34-1.05.42V9c.44.07.83.2 1.17.38a2 2 0 0 1 .79.77c.19.32.29.74.29 1.25 0 .61-.15 1.13-.43 1.55-.29.43-.69.75-1.2.97-.53.21-1.14.32-1.85.32h-3.44v-10Zm1.16 4.28h1.91c.87 0 1.48-.14 1.8-.43.35-.29.51-.7.51-1.26 0-.57-.2-.98-.6-1.23a3.67 3.67 0 0 0-1.9-.37h-1.72v3.3Zm0 .98v3.74h2.08c.89 0 1.52-.17 1.88-.52.37-.35.56-.82.56-1.42 0-.37-.09-.7-.25-.97a1.54 1.54 0 0 0-.81-.61 4.13 4.13 0 0 0-1.48-.22h-1.98Zm8.85 4.73h-1.13V3.61h1.14v10.64Zm8.6-7.49v7.49h-.93l-.17-1.05h-.06c-.15.26-.36.48-.6.65a3.08 3.08 0 0 1-1.81.54c-.6 0-1.1-.1-1.5-.29-.4-.2-.7-.49-.9-.89-.2-.4-.3-.92-.3-1.54V6.76h1.15v4.82c0 .63.14 1.1.42 1.4.28.31.71.46 1.3.46.55 0 .99-.1 1.32-.31.33-.21.57-.52.72-.92.14-.41.21-.92.21-1.5V6.75h1.15Zm5.28-.14a2.74 2.74 0 0 1 2.69 1.61c.24.51.36 1.1.36 1.78v.7h-5.18c.02.89.24 1.56.66 2.02.42.46 1.02.69 1.8.69a5.47 5.47 0 0 0 2.38-.52v1a5.53 5.53 0 0 1-2.44.49 3.9 3.9 0 0 1-1.88-.44c-.54-.3-.95-.73-1.25-1.3a4.5 4.5 0 0 1-.44-2.1 5 5 0 0 1 .4-2.08c.27-.6.66-1.05 1.15-1.37.5-.32 1.08-.48 1.75-.48Zm-.01.93c-.61 0-1.1.2-1.45.6-.36.4-.58.95-.65 1.66h3.97c0-.45-.08-.84-.21-1.18-.14-.34-.34-.6-.61-.8a1.8 1.8 0 0 0-1.05-.28Z" fill="#000"/><g clip-path="url(#a)"><path d="M22.91 24.23v-.24a2.5 2.5 0 0 0-2.43-2.55c-.3 0-.6.06-.87.17a2.47 2.47 0 0 0-2.38-2.04c-.32 0-.63.07-.9.18a2.54 2.54 0 0 0-2.4-1.88c-.31 0-.6.07-.88.18v-3.06a2.5 2.5 0 0 0-2.43-2.55 2.5 2.5 0 0 0-2.44 2.55v7.5a4 4 0 0 0-1.54-1.32 2.27 2.27 0 0 0-2.02.1 2.66 2.66 0 0 0-1.11 3.46l3.03 6.4c.08.18 2.13 4.3 5.85 4.3h4.33c3.42 0 6.2-2.91 6.2-6.5v-4.7Zm-6.19 9.5H12.4c-2.68 0-4.34-3.25-4.4-3.37l-3.02-6.39a.9.9 0 0 1 .39-1.19.72.72 0 0 1 .67-.04c.9.38 1.77 2.24 2.12 3.31l.26.83 1.4-.52V14.99c0-.47.36-.85.8-.85.46 0 .82.38.82.85v9.8h1.63v-4.31c0-.48.4-.9.85-.9.46 0 .87.39.87.84v4.65h1.62v-2.95c0-.47.37-.85.82-.85.44 0 .8.38.8.85v3.74h1.63v-1.87c0-.47.37-.85.82-.85.44 0 .8.38.8.85v1.21h.01v3.73a4.7 4.7 0 0 1-4.57 4.8Z" fill="#000"/></g><rect x="76.03" y="2.5" width="15" height="15" rx="2.5" fill="#fff" stroke="#545454"/><path d="m103.44 9.27 2.66-5.01h1.26l-3.33 6.11v3.88h-1.17v-3.82l-3.33-6.17h1.27l2.64 5Zm8-2.65a2.75 2.75 0 0 1 2.69 1.61c.24.51.36 1.1.36 1.78v.7h-5.17c.01.89.23 1.56.65 2.02.43.46 1.02.69 1.8.69a5.46 5.46 0 0 0 2.39-.52v1a5.52 5.52 0 0 1-2.44.49 3.9 3.9 0 0 1-1.89-.44c-.53-.3-.95-.73-1.24-1.3a4.5 4.5 0 0 1-.45-2.1 5 5 0 0 1 .4-2.08c.28-.6.66-1.05 1.15-1.37.5-.32 1.08-.48 1.75-.48Zm-.01.93c-.6 0-1.09.2-1.45.6-.36.4-.57.95-.64 1.66h3.96c0-.45-.07-.84-.2-1.18-.14-.34-.34-.6-.62-.8a1.8 1.8 0 0 0-1.05-.28Zm6.13 6.7h-1.14V3.61h1.14v10.64Zm3.54 0h-1.14V3.61h1.14v10.64Zm8.86-3.76c0 .62-.08 1.16-.24 1.65-.16.48-.39.89-.69 1.22a3 3 0 0 1-1.1.77c-.42.17-.9.26-1.43.26a3.12 3.12 0 0 1-3.16-2.25 5.11 5.11 0 0 1-.26-1.65c0-.82.14-1.52.42-2.1a3 3 0 0 1 1.2-1.31 3.6 3.6 0 0 1 1.84-.46c.69 0 1.28.15 1.8.46.51.3.9.75 1.2 1.33.28.57.42 1.26.42 2.08Zm-5.7 0c0 .6.08 1.12.24 1.57.16.44.4.78.74 1.02.33.24.76.36 1.28.36s.95-.12 1.28-.36c.34-.24.59-.58.75-1.02.16-.45.24-.97.24-1.57 0-.6-.08-1.11-.24-1.54-.16-.44-.4-.78-.74-1.02a2.18 2.18 0 0 0-1.3-.35c-.77 0-1.34.26-1.7.77a3.69 3.69 0 0 0-.55 2.14Zm13.76 3.75-1.33-4.37a52.8 52.8 0 0 1-.17-.54l-.15-.52-.11-.47-.08-.37h-.05a8.53 8.53 0 0 1-.2.84 24.15 24.15 0 0 1-.3 1.09l-1.4 4.34h-1.27l-2.07-7.5h1.18l1.08 4.14a30.8 30.8 0 0 1 .48 2.17h.06l.09-.4a495.58 495.58 0 0 0 .26-1.05l.15-.51 1.38-4.35h1.22l1.33 4.34a18.95 18.95 0 0 1 .5 1.96h.06a55.88 55.88 0 0 1 .27-1.33l.21-.83 1.1-4.14h1.15l-2.07 7.5h-1.32Z" fill="#000"/><path d="M129.35 24.79v-.24a2.5 2.5 0 0 0-2.43-2.55c-.3 0-.6.06-.87.17a2.47 2.47 0 0 0-2.38-2.03c-.32 0-.63.06-.9.18a2.54 2.54 0 0 0-2.4-1.88c-.31 0-.6.06-.88.17v-3.06a2.5 2.5 0 0 0-2.43-2.55 2.5 2.5 0 0 0-2.44 2.55v7.5a4 4 0 0 0-1.54-1.32 2.27 2.27 0 0 0-2.02.1 2.66 2.66 0 0 0-1.11 3.46l3.03 6.4c.08.18 2.13 4.31 5.85 4.31h4.33c3.42 0 6.2-2.92 6.2-6.51v-4.7Zm-6.19 9.51h-4.33c-2.68 0-4.34-3.25-4.4-3.37l-3.02-6.4a.9.9 0 0 1 .39-1.19.71.71 0 0 1 .67-.04c.9.39 1.77 2.24 2.12 3.32l.26.82 1.4-.52V15.55c0-.47.36-.85.8-.85.45 0 .82.38.82.85v9.8h1.64v-4.3c0-.48.4-.91.85-.91.46 0 .87.4.87.84v4.65h1.62v-2.95c0-.46.37-.85.82-.85.44 0 .8.39.8.85v3.74h1.63v-1.87c0-.47.37-.85.82-.85.44 0 .8.38.8.85v1.22h.01v3.72a4.7 4.7 0 0 1-4.57 4.81Z" fill="#000"/><defs><clipPath id="a"><path fill="#fff" transform="translate(2.09 12.44)" d="M0 0h22v23H0z"/></clipPath></defs></svg>
